!!!COM:	la Rue, Pierre de
!!!CDT:	~1452///-1518/11/20
!!!OTL:	Salve regina II
!!!AGN:	Motet
!!!SCT:	Rue2022
!!!SCA:	Rue2022
!!!voices:	4
**kern	**kern	**kern	**kern
*staff4	*staff3	*staff2	*staff1
*Ivox	*Ivox	*Ivox	*Ivox
*I"Bassus	*I"Tenor	*I"Contra	*I"Discantus
*I'B	*I'T	*I'C	*I'D
*>[A,B,C]	*>[A,B,C]	*>[A,B,C]	*>[A,B,C]
*>A	*>A	*>A	*>A
*clefF4	*clefGv2	*clefGv2	*clefG2
*k[]	*k[]	*k[]	*k[]
*M2/1	*M2/1	*M2/1	*M2/1
*met(C|)	*met(C|)	*met(C|)	*met(C|)
!!section: Salve regina
!!!OMD: Salve regina
=1-	=1-	=1-	=1-
0r	[0A	0r	2.a/
.	.	.	4g/
.	.	.	4f/
.	.	.	4e/
.	.	.	[2f/
=2	=2	=2	=2
0r	0A]	0r	2f/]
.	.	.	4e/
.	.	.	4d/
.	.	.	1c
=3	=3	=3	=3
2.G\	[0G	0r	0r
4F\	.	.	.
4E\	.	.	.
4D\	.	.	.
[2E\	.	.	.
=4	=4	=4	=4
2E\]	0G]	0r	0r
4D\	.	.	.
4C/	.	.	.
1BB	.	.	.
=5	=5	=5	=5
[0AA	[0A	2.A/	2.a/
.	.	4B\	4g/
.	.	2c\	4f/
.	.	.	4e/
.	.	2d\	[2f/
=6	=6	=6	=6
0AA]	0A]	2A/	2f/]
.	.	1d	4e/
.	.	.	4d/
.	.	.	1e
.	.	2c#i\	.
=7	=7	=7	=7
1r	0D	1d	[0d
1A	.	1r	.
=8	=8	=8	=8
1G	1r	0r	0d]
1F	1A	.	.
=9	=9	=9	=9
1E	1G	0r	0r
2r	1F	.	.
2D\	.	.	.
=10	=10	=10	=10
2C/	2.E/	1r	0r
2AA/	.	.	.
.	4F/	.	.
2GG/	2G/	1e	.
2C/	[2A/	.	.
=11	=11	=11	=11
2D\	2A/]	1d	0r
2BB/	1G	.	.
1AA	.	1c	.
.	2F#i/	.	.
=12	=12	=12	=12
0GG	2.G/	2.B\	0r
.	4A/	4c\	.
.	4B\	2d\	.
.	4G/	.	.
.	[2B\	[2d\	.
=13	=13	=13	=13
0r	4B\]	4d\]	1r
.	4A/	4c\	.
.	4G/	4B\	.
.	4F/	4A/	.
.	1E	2.G/	1c
.	.	4F/	.
=14	=14	=14	=14
0r	0D	1A	1d
.	.	2r	1f
.	.	2A/	.
=15	=15	=15	=15
1r	0r	2B\	1g
.	.	2c\	.
1GG	.	1d	1b
=16	=16	=16	=16
1AA	0r	1c	2a/
.	.	.	2.cc\
1C	.	1e	.
.	.	.	4b\
.	.	.	4a/
.	.	.	4g/
=17	=17	=17	=17
0D	0r	2.d\	[0f
.	.	8c\L	.
.	.	8B\J	.
.	.	2A/	.
.	.	[2d\	.
=18	=18	=18	=18
0D	0r	2d\]	1f]
.	.	4c\	.
.	.	4B\	.
.	.	1A	1f
=19	=19	=19	=19
2.E\	0r	[0G	2.g/
8D/L	.	.	8f/L
8C/J	.	.	8e/J
2BB/	.	.	2d/
[2E\	.	.	[2g/
=20	=20	=20	=20
2E\]	0r	0G]	2g/]
4D\	.	.	4f/
4C/	.	.	4e/
1BB	.	.	1d
=21	=21	=21	=21
[0AA	2.A/	2.A/	1c
.	8G/L	4B\	.
.	8F/J	.	.
.	2E/	2c\	2.c/
.	[2A/	[2c\	.
.	.	.	4B/
=22	=22	=22	=22
0AA]	2A/]	2c\]	2c/
.	4G/	2B\	1d
.	4F/	.	.
.	1E	1A	.
.	.	.	2c#i/
=23	=23	=23	=23
0r	0D	2.F/	0d
.	.	4G/	.
.	.	1A	.
=24	=24	=24	=24
2.AA/	[0A	0r	0r
4BB/	.	.	.
2C/	.	.	.
[2D\	.	.	.
=25	=25	=25	=25
4D\]	0A]	0r	0r
4E\	.	.	.
4F\	.	.	.
4G\	.	.	.
2A\	.	.	.
2D\	.	.	.
=26	=26	=26	=26
0r	[0G	0r	2.B/
.	.	.	4c/
.	.	.	2d/
.	.	.	[2e/
=27	=27	=27	=27
0r	0G]	0r	4e/]
.	.	.	4f/
.	.	.	4g/
.	.	.	4a/
.	.	.	2b\
.	.	.	2e/
=28	=28	=28	=28
2.AA/	[0A	1e	2r
.	.	.	1cc
4BB/	.	.	.
2C/	.	2e\	.
[2D\	.	[2f\	[2a/
=29	=29	=29	=29
4D\]	0A]	2f\]	2a/]
4E\	.	.	.
4F\	.	4e\	4g/
4G\	.	4d\	4f/
2A\	.	2c\	2e/
2D\	.	[2f\	[2a/
=30	=30	=30	=30
0A	0D	2f\]	2a/]
.	.	2d\	1f
.	.	1d	.
.	.	.	4e/
.	.	.	4d/
=31	=31	=31	=31
1AA	0r	2.e\	2.c/
.	.	4d\	4d/
1r	.	2c\	2e/
.	.	2d\	[2f/
=32	=32	=32	=32
0r	0A	2A/	4f/]
.	.	.	4g/
.	.	2.c\	4a/
.	.	.	4b\
.	.	.	1cc
.	.	4d\	.
.	.	4e\	.
.	.	4f\	.
=33	=33	=33	=33
0r	[0G	2.g\	0b
.	.	8f\L	.
.	.	8e\J	.
.	.	2d\	.
.	.	[2g\	.
=34	=34	=34	=34
0E	0G]	2g\]	2r
.	.	1e	1b
.	.	2e\	2g/
=35	=35	=35	=35
1D	1F	2f\	2b\
.	.	2d\	1a
1C	1E	2e\	.
.	.	2c\	[2g/
=36	=36	=36	=36
0BB-	1.D	0d	2g/]
.	.	.	1f
.	2E/	.	4e/
.	.	.	4d/
=37	=37	=37	=37
1AA	2F/	1r	1c
.	1E	.	.
1C	.	1e	2r
.	[2A/	.	2e/
=38	=38	=38	=38
2D\	2A/]	2d\	2f/
2E\	1G	2c\	1g
1C	.	1e	.
.	[2A/	.	2e/
=39	=39	=39	=39
2D\	2A/]	2d\	2f/
1E	1G	2c\	2g/
.	.	2B\	1e
2C/	[2A/	2e\	.
=40	=40	=40	=40
2D\	2A/]	2d\	2f/
2E\	2G/	2.c\	2g/
1AA	1A	.	2e/
.	.	4B\	.
.	.	[2A/	[2f/
=41	=41	=41	=41
1BB	1D	2A/]	4f/]
.	.	.	4e/
.	.	2G/	1d
1AA	1E	1A	.
.	.	.	2c#i/
=42	=42	=42	=42
0r	0D	0r	1d
.	.	.	2r
.	.	.	2A/
=43	=43	=43	=43
0r	1r	0r	2B/
.	.	.	2c/
.	1F	.	2d/
.	.	.	2f/
=44	=44	=44	=44
0r	1G	0r	2e/
.	.	.	2.d/
.	1F	.	.
.	.	.	4c/
.	.	.	4B/
.	.	.	4A/
=45	=45	=45	=45
1r	1G	0r	1B
2r	1A	.	1A
2AA/	.	.	.
=46	=46	=46	=46
2BB/	0r	2r	0r
2C/	.	2A/	.
2D\	.	2B\	.
2E\	.	2c\	.
=47	=47	=47	=47
2F\	0r	2d\	1f
4E\	.	2f\	.
4D\	.	.	.
2C/	.	2.e\	1g
2G\	.	.	.
.	.	4c\	.
=48	=48	=48	=48
2D\	0r	4d\	1f
.	.	4c\	.
2F\	.	4B\	.
.	.	4A/	.
1E	.	1B	1g
=49	=49	=49	=49
1AA	1r	1A	[0a
[1F	[1A	1r	.
=50	=50	=50	=50
1F]	1A]	1c	0a_
1F	1A	1d	.
=51	=51	=51	=51
0F	0A	1c	0a]
.	.	1d	.
=52	=52	=52	=52
1.E	1B	0e	1r
.	2B\	.	1g
2C/	[2c\	.	.
=53	=53	=53	=53
1C	2c\]	1e	1.g
.	4B\	.	.
.	4A/	.	.
1r	1G	2e\	.
.	.	[2d\	2f/
=54	=54	=54	=54
2r	0r	2d\]	1e
2E\	.	2.c\	.
2F\	.	.	1d
.	.	4A/	.
2G\	.	2B\	.
=55	=55	=55	=55
1C	1c	1E	1.g
1r	[1c	1r	.
.	.	.	[2a/
=56	=56	=56	=56
0r	2c\]	0r	2a/]
.	2B\	.	1g
.	1A	.	.
.	.	.	2f#i/
=57	=57	=57	=57
1C	1G	1e	1g
[1C	2G/	[1e	1r
.	[2A/	.	.
=58	=58	=58	=58
2C/]	2A/]	2e\]	0r
2BB/	1G	2d\	.
1AA	.	1c	.
.	2F#i/	.	.
=59	=59	=59	=59
0GG	0G	2.B\	1r
.	.	4c\	.
.	.	4d\	1g
.	.	4B\	.
.	.	[2e\	.
=60	=60	=60	=60
0r	0r	2e\]	1f
.	.	1d	.
.	.	.	1e
.	.	2c\	.
=61	=61	=61	=61
0r	1r	2.d\	2d/
.	.	.	4B/
.	.	4c\	4c/
.	1G	4B\	4d/
.	.	4A/	4B/
.	.	[2B\	[2e/
=62	=62	=62	=62
0r	1F	2B\]	2e/]
.	.	1A	1d
.	1E	.	.
.	.	2G/	2c#i/
=63	=63	=63	=63
1r	2D/	0A	1d
.	1F	.	.
1D	.	.	2r
.	2F/	.	[2a/
=64	=64	=64	=64
1C	2E/	0r	4a/]
.	.	.	4b\
.	1A	.	2cc\
1BB	.	.	2dd\
.	2G/	.	2b\
=65	=65	=65	=65
1AA	1A	0r	2cc\
.	.	.	2a/
1r	2G/	.	2.b\
.	2E/	.	.
.	.	.	4g/
=66	=66	=66	=66
0r	2F/	0r	2a/
.	2D/	.	2f/
.	2E/	.	2g/
.	2G/	.	[2e/
=67	=67	=67	=67
0r	1F	1r	2e/]
.	.	.	2d/
.	1E	2r	1e
.	.	2B\	.
=68	=68	=68	=68
0AA	2r	2c\	0r
.	2E/	2.e\	.
.	2F/	.	.
.	.	4A/	.
.	[2A/	4c\	.
.	.	4d\	.
=69	=69	=69	=69
0AA	4A/]	2e\	1r
.	4D/	.	.
.	2F/	1d	.
.	1E	.	2r
.	.	2c\	2e/
=70	=70	=70	=70
0r	0D	2d\	2f/
.	.	2.f\	2.a/
.	.	4e\	4d/
.	.	[2d\	2f/
=71	=71	=71	=71
0r	1.A	2d\]	1e
.	.	2c#i\	.
.	.	1d	2r
.	2B\	.	2d/
=72	=72	=72	=72
0r	2c\	0r	2.e/
.	2.e\	.	.
.	.	.	4f/
.	.	.	2g/
.	4A/	.	.
.	2c\	.	[2a/
=73	=73	=73	=73
0r	1B	1r	2a/]
.	.	.	2g#i/
.	1A	[1e	[1a
=74	=74	=74	=74
0AA	0c	1e]	1a]
.	.	1e	[1cc
=75	=75	=75	=75
0AA	1A	1f	1cc]
.	[1c	[1e	1a
=76	=76	=76	=76
0r	2c\]	2e\]	1g
.	2B\	2d\	.
.	2A/	2c\	[1a
.	2G/	2B\	.
=77	=77	=77	=77
0AA	2F/	2A/	2a/]
.	2E/	1e	2g/
.	[1A	.	1f
.	.	2d\	.
=78	=78	=78	=78
0AA	2A/]	2c\	1e
.	4G/	2B\	.
.	4F/	.	.
.	1E	1A	2r
.	.	.	[2e/
=79	=79	=79	=79
0E	2r	2G/	4e/]
.	.	.	4f/
.	2E/	2c\	1g
.	1G	2B\	.
.	.	[2e\	2b\
=80	=80	=80	=80
1F	1A	2e\]	1a
.	.	2d\	.
1E	2B\	1e	1g
.	[2c\	.	.
=81	=81	=81	=81
1F	2c\]	1A	1r
.	2A/	.	.
1E	2B\	2r	2r
.	[2c\	[2e\	2g/
=82	=82	=82	=82
1F	2c\]	2e\]	1a
.	2A/	2d\	.
1E	2B\	1e	1g
.	[2c\	.	.
=83	=83	=83	=83
1F	2c\]	2c\	1r
.	4B\	2d\	.
.	4A/	.	.
1G	1G	[1B	2r
.	.	.	[2g/
=84	=84	=84	=84
0E	1r	1B]	4g/]
.	.	.	4a/
.	.	.	2b\
.	2.G/	2r	2cc\
.	.	2e\	[2b\
.	4A/	.	.
=85	=85	=85	=85
2r	2B\	2d\	2b\]
2E\	1c	1e	2g/
2F\	.	.	2a/
2G\	2B\	2d\	[2b\
=86	=86	=86	=86
2E\	2G/	1e	2b\]
2C/	1A	.	2e/
2D\	.	2d\	2f/
2E\	2G/	2B\	[2g/
=87	=87	=87	=87
2C/	2E/	1c	2g/]
2AA/	1F	.	2c/
2BB/	.	2B\	2d/
2C/	2E/	2G/	[2e/
=88	=88	=88	=88
2AA/	2C/	1A	2e/]
2FF/	1D	.	2A/
2GG/	.	2G/	2B/
2AA/	2C/	2E/	2c/
=89	=89	=89	=89
2BB-i/	2.F/	2r	2d/
2AA/	.	1c	1f
.	4G/	.	.
2FF/	2A/	.	.
2GG/	2G/	4B\	[2e/
.	.	4c\	.
=90	=90	=90	=90
2BB-i/	2F/	2d\	2e/]
2GG/	2G/	2B\	1d
1AA	1E	1A	.
.	.	.	2c#i/
=91	=91	=91	=91
0Dl	0Dl	0Al	0dl
!!LO:LB:i:g=z
=92||	=92||	=92||	=92||
*>B	*>B	*>B	*>B
*clefF4	*clefGv2	*clefGv2	*clefG2
*k[]	*k[]	*k[]	*k[]
*M2/1	*M2/1	*M2/1	*M2/1
*met(C|)	*met(C|)	*met(C|)	*met(C|)
!!section: Eia ergo
!!!OMD: Eia ergo
1r	[0F	0r	0r
2.F\	.	.	.
4G\	.	.	.
=93	=93	=93	=93
2A\	0F_	0r	0r
2.A\	.	.	.
4G\	.	.	.
4F\	.	.	.
4E\	.	.	.
=94	=94	=94	=94
2.D\	0F_	0r	0r
4E\	.	.	.
2F\	.	.	.
[2F\	.	.	.
=95	=95	=95	=95
4F\]	0F]	0r	0r
4E\	.	.	.
4D\	.	.	.
4C/	.	.	.
2.BB-/	.	.	.
4C/	.	.	.
=96	=96	=96	=96
2D\	0F	0r	1r
2.D\	.	.	.
.	.	.	1a
4C/	.	.	.
4BB-i/	.	.	.
4AA/	.	.	.
=97	=97	=97	=97
[0GG	[0G	0r	2.b\
.	.	.	4cc\
.	.	.	2dd\
.	.	.	[2dd\
=98	=98	=98	=98
0GG_	0G_	0r	4dd\]
.	.	.	4cc\
.	.	.	4b\
.	.	.	4a/
.	.	.	2.g/
.	.	.	4a/
=99	=99	=99	=99
0GG]	0G_	0r	2b\
.	.	.	2.b\
.	.	.	4a/
.	.	.	4g/
.	.	.	4f/
=100	=100	=100	=100
0r	0G]	0r	2.e/
.	.	.	4f/
.	.	.	2g/
.	.	.	[2g/
=101	=101	=101	=101
[0C	[0G	0r	4g/]
.	.	.	4f/
.	.	.	4e/
.	.	.	4d/
.	.	.	2.c/
.	.	.	4d/
=102	=102	=102	=102
0C]	0G]	0r	2e/
.	.	.	2.e/
.	.	.	4d/
.	.	.	4c/
.	.	.	4B/
=103	=103	=103	=103
[0D	[0F	0r	2A/
.	.	.	2d/
.	.	.	2A/
.	.	.	[2d/
=104	=104	=104	=104
0D]	0F]	0r	2d/]
.	.	.	4c/
.	.	.	4B/
.	.	.	2.A/
.	.	.	4B/
=105	=105	=105	=105
2.AA/	[0E	0r	2c/
.	.	.	2d/
4BB/	.	.	.
2C/	.	.	2e/
2D\	.	.	2f/
=106	=106	=106	=106
2E\	0E]	0r	1g
2F\	.	.	.
1G	.	.	1e
=107	=107	=107	=107
[0E	[0G	0r	2r
.	.	.	2g/
.	.	.	2.g/
.	.	.	4f/
=108	=108	=108	=108
0E]	0G]	0r	2e/
.	.	.	2d/
.	.	.	2c/
.	.	.	2B/
=109	=109	=109	=109
[0AA	[0A	0r	2A/
.	.	.	2cc\
.	.	.	2.cc\
.	.	.	4b\
=110	=110	=110	=110
0AA]	0A]	0r	2a/
.	.	.	2g/
.	.	.	2f/
.	.	.	2e/
=111	=111	=111	=111
2r	0r	0r	[0g
2G\	.	.	.
2.G\	.	.	.
4F\	.	.	.
=112	=112	=112	=112
2E\	0r	0r	0g]
2D\	.	.	.
2C/	.	.	.
2BB/	.	.	.
=113	=113	=113	=113
[0AA	2r	0r	[0a
.	2c\	.	.
.	2.c\	.	.
.	4B\	.	.
=114	=114	=114	=114
0AA]	2A/	0r	0a]
.	2G/	.	.
.	2F/	.	.
.	2E/	.	.
=115	=115	=115	=115
2r	[0G	0r	2r
2G\	.	.	2b\
2.G\	.	.	2.b\
4F\	.	.	4a/
=116	=116	=116	=116
2E\	0G]	0r	2g/
2D\	.	.	2f/
2C/	.	.	2e/
2BB/	.	.	2d/
=117	=117	=117	=117
2.AA/	[0A	0r	2.c/
4BB/	.	.	4d/
2C/	.	.	2e/
[2D\	.	.	[2f/
=118	=118	=118	=118
4D\]	0A]	0r	2f/]
4E\	.	.	.
1F	.	.	4e/
.	.	.	4d/
.	.	.	2c/
4E\	.	.	2d/
4D\	.	.	.
=119	=119	=119	=119
2C/	0r	0r	2.e/
2c\	.	.	.
.	.	.	4d/
2.c\	.	.	4c/
.	.	.	4B/
.	.	.	[2A/
4B\	.	.	.
=120	=120	=120	=120
2A\	0r	0r	2A/]
2G\	.	.	1d
2F\	.	.	.
2E\	.	.	2c#i/
=121	=121	=121	=121
[0D	0d	0r	1d
.	.	.	2r
.	.	.	2d/
=122	=122	=122	=122
1D]	0d	0r	2.f/
.	.	.	4g/
2r	.	.	[1a
2D\	.	.	.
=123	=123	=123	=123
2.F\	[0c	0r	2a/]
.	.	.	4g/
4G\	.	.	4f/
[1A	.	.	1e
=124	=124	=124	=124
2A\]	0c]	0r	2r
4G\	.	.	2a/
4F\	.	.	.
1E	.	.	2g/
.	.	.	2e/
=125	=125	=125	=125
2r	[0B	0r	1.g
2.E\	.	.	.
4F\	.	.	.
[2G\	.	.	2e/
=126	=126	=126	=126
2G\]	0B_	0r	1e
2E\	.	.	.
1E	.	.	2r
.	.	.	[2b\
=127	=127	=127	=127
1r	0B_	0r	4b\]
.	.	.	4cc\
.	.	.	2.dd\
2r	.	.	.
.	.	.	4cc\
[2E\	.	.	4b\
.	.	.	4a/
=128	=128	=128	=128
4E\]	0B]	0r	1g
4F\	.	.	.
2.G\	.	.	.
.	.	.	2r
4F\	.	.	.
4E\	.	.	[2g/
4D\	.	.	.
=129	=129	=129	=129
0C	[0c	0r	2g/]
.	.	.	4a/
.	.	.	4b\
.	.	.	2cc\
.	.	.	2g/
=130	=130	=130	=130
2r	0c_	0r	2.cc\
2C/	.	.	.
.	.	.	4b\
2.C/	.	.	2a/
.	.	.	2g/
8D\L	.	.	.
8E\J	.	.	.
=131	=131	=131	=131
2F\	0c]	0r	2a/
2C/	.	.	2g/
2.F\	.	.	2a/
.	.	.	2cc\
4E\	.	.	.
=132	=132	=132	=132
2.D\	0d	0r	2b\
.	.	.	2.dd\
4C/	.	.	.
2BB/	.	.	.
.	.	.	4cc\
2GG/	.	.	[2b\
=133	=133	=133	=133
1AA	1c	0r	2b\]
.	.	.	1a
1E	1B	.	.
.	.	.	2g#i/
=134	=134	=134	=134
0AA	1.A	0r	0a
.	4G/	.	.
.	4F/	.	.
=135	=135	=135	=135
0r	2E/	0r	1r
.	2.F/	.	.
.	.	.	1a
.	4E/	.	.
.	2F/	.	.
=136	=136	=136	=136
0r	4G/	0r	1g
.	4F/	.	.
.	4E/	.	.
.	4D/	.	.
.	2C#i/	.	1e
.	4D/	.	.
.	4C#i/	.	.
=137	=137	=137	=137
1r	1D	0r	2f/
.	.	.	2.d/
1D	1F	.	.
.	.	.	4e/
.	.	.	2f/
=138	=138	=138	=138
1C	0E	0r	4g/
.	.	.	4f/
.	.	.	4e/
.	.	.	4d/
1AA	.	.	2c#i/
.	.	.	4d/
.	.	.	4c#i/
=139	=139	=139	=139
2BB/	1D	0r	0d
2.GG/	.	.	.
.	1d	.	.
4AA/	.	.	.
2BB/	.	.	.
=140	=140	=140	=140
4C/	1c	0r	0r
4BB/	.	.	.
4AA/	.	.	.
4GG/	.	.	.
2FF#i/	1A	.	.
4GG/	.	.	.
4FF#/	.	.	.
=141	=141	=141	=141
1GG	2B\	0r	1r
.	2.G/	.	.
1BB	.	.	1dd
.	4A/	.	.
.	2B\	.	.
=142	=142	=142	=142
0AA	4c\	0r	1cc
.	4B\	.	.
.	4A/	.	.
.	4G/	.	.
.	2F#i/	.	1a
.	4G/	.	.
.	4F#i/	.	.
=143	=143	=143	=143
1GG	1G	0r	2b\
.	.	.	2.g/
1G	1B	.	.
.	.	.	4a/
.	.	.	2b\
=144	=144	=144	=144
1F	0A	0r	4cc\
.	.	.	4b\
.	.	.	4a/
.	.	.	4g/
1D	.	.	2f#i/
.	.	.	4g/
.	.	.	4f#i/
=145	=145	=145	=145
2E\	0G	0r	0g
2.C/	.	.	.
4D\	.	.	.
2E\	.	.	.
=146	=146	=146	=146
2F\	0D	0r	0r
2.D\	.	.	.
4E\	.	.	.
2F\	.	.	.
=147	=147	=147	=147
2G\	0E	0r	2r
2.C/	.	.	2.e/
4D\	.	.	4f/
2E\	.	.	2g/
=148	=148	=148	=148
2D\	0F	0r	2a/
2.BB/	.	.	2.d/
4C/	.	.	4e/
2D\	.	.	2f/
=149	=149	=149	=149
2C/	0E	0r	2g/
2.AA/	.	.	2.c/
4BB/	.	.	4d/
2C/	.	.	2e/
=150	=150	=150	=150
1BB	0D	0r	4f/
.	.	.	4e/
.	.	.	4d/
.	.	.	4c/
1GG	.	.	2.B/
.	.	.	4A/
=151	=151	=151	=151
2r	0C	0r	1c
2.G\	.	.	.
.	.	.	1r
4F\	.	.	.
4E\	.	.	.
4D\	.	.	.
=152	=152	=152	=152
1C	2r	0r	2.e/
.	1G	.	.
.	.	.	4f/
2r	.	.	2g/
2C/	2E/	.	[2a/
=153	=153	=153	=153
1D	2F/	0r	2a/]
.	2A/	.	2f/
1E	2G/	.	2g/
.	2C/	.	[2e/
=154	=154	=154	=154
1F	1c	0r	2e/]
.	.	.	1a
1D	1d	.	.
.	.	.	2f/
=155	=155	=155	=155
1E	1B	0r	2g/
.	.	.	1e
1AA	2.c\	.	.
.	.	.	[2A/
.	4d\	.	.
=156	=156	=156	=156
1A	2e\	0r	2A/]
.	2.f\	.	1a
2F\	.	.	.
.	4e\	.	.
2G\	[2d\	.	[2g/
=157	=157	=157	=157
1E	2d\]	0r	2g/]
.	2c\	.	2e/
1D	2d\	.	2f/
.	[2f\	.	[2d/
=158	=158	=158	=158
2r	2f\]	0r	4d/]
.	.	.	4e/
2D\	2d\	.	4f/
.	.	.	8e/L
.	.	.	8f/J
2C/	2e\	.	2g/
2D\	2f\	.	2d/
=159	=159	=159	=159
2C/	2e\	0r	2g/
1D	2d\	.	2f/
.	2f\	.	2d/
2C/	[2e\	.	[2g/
=160	=160	=160	=160
1D	2e\]	0r	4g/]
.	.	.	4f/
.	1d	.	4e/
.	.	.	4d/
1r	.	.	1e
.	2c#i\	.	.
=161	=161	=161	=161
2r	1d	0r	[0d
2D\	.	.	.
2BB/	2r	.	.
2GG/	[2D/	.	.
=162	=162	=162	=162
1D	4D/]	0r	0d_
.	4E/	.	.
.	4F/	.	.
.	8E/L	.	.
.	8F/J	.	.
2r	2G/	.	.
2D\	2D/	.	.
=163	=163	=163	=163
2GG/	2G/	0r	0d]
2.D\	2F/	.	.
.	2D/	.	.
4C/	.	.	.
4BB/	[2G/	.	.
4AA/	.	.	.
=164	=164	=164	=164
1BB	4G/]	0r	1d
.	4F/	.	.
.	4E/	.	.
.	4D/	.	.
1AA	1E	.	1c#i
=165	=165	=165	=165
1r	[0Dl	0r	[0dl
1D	.	.	.
=166	=166	=166	=166
0Dl	0D]	0r	0d]
!!LO:LB:i:g=z
=167||	=167||	=167||	=167||
*>C	*>C	*>C	*>C
*clefF4	*clefGv2	*clefGv2	*clefG2
*k[]	*k[]	*k[]	*k[]
*M2/1	*M2/1	*M2/1	*M2/1
*met(C|)	*met(C|)	*met(C|)	*met(C|)
!!section: Et Jesum
!!!OMD: Et Jesum
0D	[0A	0r	1r
.	.	.	[1a
=168	=168	=168	=168
0AA	0A]	[0e	1a]
.	.	.	[1e
=169	=169	=169	=169
1C	0E	1e]	1e]
[1E	.	[1B	1g
=170	=170	=170	=170
2E\]	0G	1B]	2r
4D\	.	.	2.g/
4C/	.	.	.
1BB	.	1d	.
.	.	.	4a/
.	.	.	2b\
=171	=171	=171	=171
1AA	1A	1c	2e/
.	.	.	1cc
1r	2r	1r	.
.	2B\	.	2b\
=172	=172	=172	=172
0r	1c	0r	2g/
.	.	.	1a
.	2B\	.	.
.	2G/	.	[2g/
=173	=173	=173	=173
1r	1A	0r	2g/]
.	.	.	2f#i/
1C	2.G/	.	1g
.	4F/	.	.
=174	=174	=174	=174
2BB/	2D/	1r	0r
2GG/	1G	.	.
1AA	.	1c	.
.	2F#i/	.	.
=175	=175	=175	=175
0GG	0G	2B\	1r
.	.	1d	.
.	.	.	1dd
.	.	4c\	.
.	.	4B\	.
=176	=176	=176	=176
0r	1r	2A/	1cc
.	.	2c\	.
.	1G	2d\	1b
.	.	[2e\	.
=177	=177	=177	=177
0r	1F	2e\]	1a
.	.	1d	.
.	1E	.	2r
.	.	2c\	2g/
=178	=178	=178	=178
0r	1D	2d\	2f/
.	.	2B\	2d/
.	1r	1A	2e/
.	.	.	2f/
=179	=179	=179	=179
1r	0r	0G	2.g/
.	.	.	4f/
1G	.	.	4e/
.	.	.	4d/
.	.	.	[2e/
=180	=180	=180	=180
1F	0r	1r	2e/]
.	.	.	1d
1E	.	1G	.
.	.	.	2c#i/
=181	=181	=181	=181
1D	1r	2A/	1d
.	.	2B\	.
2r	2r	2A/	1r
[2D\	[2F/	[2d\	.
=182	=182	=182	=182
4D\]	4F/]	2d\]	1r
4E\	4G/	.	.
2F\	2A/	2c\	.
2G\	2E/	2B\	2r
2D\	[2F/	2A/	[2a/
=183	=183	=183	=183
1r	4F/]	2f\	4a/]
.	4G/	.	4b\
.	2A/	2e\	2cc\
2r	1D	2d\	2dd\
[2D\	.	[2f\	2a/
=184	=184	=184	=184
4D\]	1r	2f\]	1r
4E\	.	.	.
2F\	.	2f\	.
2G\	2r	2.d\	2r
[2D\	2D/	.	[2a/
.	.	4e\	.
=185	=185	=185	=185
4D\]	1A	1f	4a/]
4C/	.	.	4b\
4BB/	.	.	2cc\
4AA/	.	.	.
1GG	1B	1r	2dd\
.	.	.	2g/
=186	=186	=186	=186
1AA	0A	1.e	0cc
2r	.	.	.
[2AA/	.	2A/	.
=187	=187	=187	=187
4AA/]	1c	1e	2r
4BB/	.	.	.
2C/	.	.	2.a/
2D\	2B\	2d\	.
.	.	.	4b\
2AA/	[2A/	2e\	2cc\
=188	=188	=188	=188
2BB/	2A/]	2d\	2dd\
2C/	1G	2e\	2g/
1AA	.	1c	1cc
.	2F#i/	.	.
=189	=189	=189	=189
1GG	1G	1r	1.b
1r	1d	1f	.
.	.	.	[2a/
=190	=190	=190	=190
0r	2c\	2e\	2a/]
.	2B\	1d	1g
.	1A	.	.
.	.	2c\	2f#i/
=191	=191	=191	=191
[0GG	[0G	1d	0g
.	.	2d\	.
.	.	[2e\	.
=192	=192	=192	=192
0GG]	0G]	4e\]	1r
.	.	4d\	.
.	.	1c	.
.	.	.	1d
.	.	2B\	.
=193	=193	=193	=193
0C	0r	1.c	2.e/
.	.	.	4f/
.	.	.	2g/
.	.	4B\	2a/
.	.	4A/	.
=194	=194	=194	=194
1D	1F	2B\	1f
.	.	2A/	.
2C/	2.G/	2c\	1e
[2G\	.	[2B\	.
.	4A/	.	.
=195	=195	=195	=195
4G\]	2B\	4B\]	1r
4F\	.	4A/	.
2E\	1c	1G	.
1D	.	.	1d
.	2B\	2F/	.
=196	=196	=196	=196
2.C/	1c	2G/	2.e/
.	.	2A/	.
4D\	.	.	4f/
2E\	1r	2G/	2g/
2F\	.	[2c\	2a/
=197	=197	=197	=197
1D	1F	2c\]	1f
.	.	2B\	.
1C	2.G/	1c	2e/
.	.	.	[2g/
.	4A/	.	.
=198	=198	=198	=198
0r	2B\	0r	2g/]
.	1c	.	4f/
.	.	.	4e/
.	.	.	1d
.	2B\	.	.
=199	=199	=199	=199
0C	[0c	[0e	1r
.	.	.	1g
=200	=200	=200	=200
1C	0c]	0e]	2g/
.	.	.	1a
1AA	.	.	.
.	.	.	2a/
=201	=201	=201	=201
0C	1r	0e	1g
.	[1c	.	2g/
.	.	.	[2cc\
=202	=202	=202	=202
1AA	1c]	1f	1cc]
1GG	[1d	1g	[1b
=203	=203	=203	=203
0D	2d\]	1.f	2b\]
.	4c\	.	1a
.	4B\	.	.
.	2A/	.	.
.	2B\	4e\	4g/
.	.	4d\	4f/
=204	=204	=204	=204
1C	1c	2e\	2e/
.	.	4d\	1g
.	.	4c\	.
1D	1r	2B\	.
.	.	2A/	2f/
=205	=205	=205	=205
2C/	2r	2c\	2e/
2E\	2G/	2B\	1g
1D	2.A/	1d	.
.	.	.	2f/
.	4B\	.	.
=206	=206	=206	=206
0C	2.c\	0G	2e/
.	.	.	2.g/
.	4B\	.	.
.	2A/	.	.
.	.	.	4f/
.	2G/	.	[2e/
=207	=207	=207	=207
1D	2F/	0r	2e/]
.	2D/	.	1d
1AA	1E	.	.
.	.	.	2c#i/
=208	=208	=208	=208
0r	[0D	2r	0d
.	.	2.A/	.
.	.	4F/	.
.	.	[2B-i\	.
=209	=209	=209	=209
1r	0D]	2B-\]	0r
.	.	1A	.
2r	.	.	.
[2D\	.	[2f\	.
=210	=210	=210	=210
4D\]	[0A	4f\]	2r
4C/	.	4e\	.
1F	.	2d\	2.f/
.	.	2c\	.
.	.	.	4e/
[2F\	.	[2f\	[2a/
=211	=211	=211	=211
4F\]	0A]	2f\]	2a/]
4E\	.	.	.
4D\	.	2e\	1g
4C/	.	.	.
1D	.	1d	.
.	.	.	2f#i/
=212	=212	=212	=212
0GG	[0G	1r	0g
.	.	2r	.
.	.	[2d\	.
=213	=213	=213	=213
2r	0G]	4d\]	0r
.	.	4B\	.
2.C/	.	2.e\	.
4BB/	.	4d\	.
[2E\	.	2g\	.
=214	=214	=214	=214
2E\]	[0A	2c\	2r
1D	.	2d\	2.f/
.	.	1e	.
.	.	.	4e/
2C/	.	.	[2a/
=215	=215	=215	=215
0D	0A]	0d	2a/]
.	.	.	1g
.	.	.	2f#i/
=216	=216	=216	=216
[0GG	[0B	1r	0g
.	.	[1d	.
=217	=217	=217	=217
0GG]	0B]	1d]	1r
.	.	1d	2r
.	.	.	[2g/
=218	=218	=218	=218
0C	[0c	0e	2g/]
.	.	.	1.g
=219	=219	=219	=219
0AA	0c]	1c	1a
.	.	1A	1cc
=220	=220	=220	=220
2GG/	[0d	2B\	2b\
2FF/	.	2.d\	1a
1GG	.	.	.
.	.	4G/	.
.	.	2B\	[2g/
=221	=221	=221	=221
1D	0d]	1A	2g/]
.	.	.	2f/
1GG	.	1G	2g/
.	.	.	[2b-i\
=222	=222	=222	=222
1r	1c	1r	2b-\]
.	.	.	1a
1GG	1B-i	[1d	.
.	.	.	2g/
=223	=223	=223	=223
1D	[0A	1d]	0a
2C/	.	2e\	.
[2D\	.	[2f\	.
=224	=224	=224	=224
4D\]	1A]	4f\]	0r
4C/	.	4e\	.
2AA/	.	4d\	.
.	.	4c\	.
1BB	1G	1d	.
=225	=225	=225	=225
0AA	1A	0c	3%2aV
.	.	.	3g/Z
.	1r	.	3f/V
.	.	.	3%2eZ
=226	=226	=226	=226
3%2DV	0A	0r	0r
3C/Z	.	.	.
3BB/V	.	.	.
3%2AAZ	.	.	.
=227	=227	=227	=227
0r	0G	3%2eV	0r
.	.	3d\Z	.
.	.	3c\V	.
.	.	3%2BZ	.
=228	=228	=228	=228
0r	0A	3.A/V	3%2aV
.	.	6B\	.
.	.	3c\Z	3g/Z
.	.	3%2dV	3f/V
.	.	.	3%2eZ
.	.	3c\Z	.
=229	=229	=229	=229
3%2GV	0B	0d	3%2dV
3F\Z	.	.	3rZ
3E\V	.	.	3rV
3%2DZ	.	.	3%2dZ
=230	=230	=230	=230
3%2.CV	0c	0r	3%2.eV
3BB/	.	.	3d/
3%2AAZ	.	.	3%2cZ
=231	=231	=231	=231
1GG	[0d	1G	0B
2r	.	2G/	.
[2GG/	.	[2G/	.
=232	=232	=232	=232
2GG/]	0d]	2G/]	2r
1GG	.	4F/	1b
.	.	4E/	.
.	.	2D/	.
2BB/	.	2G/	2b\
=233	=233	=233	=233
2AA/	1c	2r	1cc
1AA	.	2E/	.
.	1B	2F/	1dd
2GG/	.	2G/	.
=234	=234	=234	=234
1AA	1A	2E/	1cc
.	.	2e\	.
2AA/	2c\	2f\	2a/
[2GG/	[2d\	2g\	[2b\
=235	=235	=235	=235
2GG/]	4d\]	[0e	2b\]
.	4c\	.	.
2AA/	2A/	.	1a
1E	1B	.	.
.	.	.	2g#i/
=236	=236	=236	=236
1AA	[0A	1e]	1a
2r	.	2r	2r
2AA/	.	2c\	2e/
=237	=237	=237	=237
1D	0A]	1d	1f
1AA	.	[1c	1e
=238	=238	=238	=238
1r	1A	2c\]	2r
.	.	2A/	2.e/
2r	1G	1B	.
.	.	.	4f/
2GG/	.	.	2g/
=239	=239	=239	=239
2AA/	1F	0A	2c/
2BB/	.	.	2d/
2C/	2E/	.	2e/
2D\	2A/	.	2f/
=240	=240	=240	=240
2GG/	2G/	1r	2g/
2AA/	1F	.	2c/
2BB/	.	2r	2d/
2C/	2E/	[2A/	2e/
=241	=241	=241	=241
2D\	2A/	2A/]	2f/
2GG/	2G/	2B\	2g/
2AA/	1F	2c\	2c/
2BB/	.	2B\	2d/
=242	=242	=242	=242
2C/	2E/	2G/	2e/
2D\	2A/	1d	2f/
2GG/	2B\	.	2g/
2AA/	[2A/	2c\	[2e/
=243	=243	=243	=243
1BB	4A/]	2d\	2e/]
.	4G/	.	.
.	4F/	2G/	2.d/
.	4D/	.	.
1AA	1E	1A	.
.	.	.	4c#i/
.	.	.	2c#i/
=244	=244	=244	=244
0Dl	0Dl	0Al	0dl
==	==	==	==
*-	*-	*-	*-
!!!RDF**kern: l=long note in original notation
!!!RDF**kern: i=editorial accidental
!!!RDF**kern: V=start of tuplet marker
!!!RDF**kern: Z=end of tuplet marker
!!!ENC:	Chris Gage 02-12-2013
!!!END:	2013/02/14/
!!!EED:	Jesse Rodin
!!!EEV:	2013/07/20/
!!!ONB:	Translated from MusicXML and edited on 2013/07/20/ by Craig Sapp
!!muse2ps: C^@{COM}^i2I150v85,85,85,150Q8c90
